X:470
T:St.Albans. (p).1701.PLFD.470
M:6/4
L:1/4
Q:3/4=80
S:Playford, Dancing Master,11th Ed.,1701.
O:England
N:The last four bars of this remind me of the Flaxley Green Morris tune
N:noted off William or Henry Robinson of Abbots Bromley in 1857.
Z:Chris Partington.
K:F
c2cf>ed|c2BA3|cAFdBG|fcFA2F|
c2cf>ed|c2BA2c|dAd=BdG|gdge2c:|
|:gecg2e|afda2d|ge^cAad|gefe2d|
AcfBdg|ceadfb|g>fgcAF|f>gag2f:|
